X:5
T:A la mar fui por naranxes (CT 275)
R:Xiraldilla
C:Tradicional
S:Msica Tradicional Asturiana, (C) Tello & Tito. Asturies, 2001.
S:http://pagina.de/MusTradAst <telloytito@asturies.org>
N:Xiraldilla, transcrita en Uviu.
A:Asturies
O:Uviu
Z:Cancioneru de Torner 275
M:2/4
L:1/8
Q:1/4=160
K:Gm
|: GA Bc|d3 c|e2 d2|dd dd|c3 B|A2 G2 :|
|AA AG|^F4|AA AB|[1 c3 B|A2 G2 :|[2 c3 A|dc BA|G4||
W:A la mar fui por naranxes,
W:cosa que la mar nun tien;
W:toda vine moyadita
W:d'oles que van y vienen.
W:
W:Ai mi dulce amor!
W:ese mar que ves tan bello,
W:Ai mi dulce amor!
W:ese mar que ves tan bello, es un traidor.
W:
